!!!SOCIAL_FUNCTION:	songs used in the treatment of the sick
!!!PDT:	1929
!!!OTL: No_74_The_Owl_Feather.krn
!!!REG: Southwest
!!!LANG: Non-Tone
!!!LING_GROUP: Uto-Aztecan
**kern
*staff1
*clefF4
*k[b-e-]
*M2/4
8F\L
16d\L
16d\JJ
=1
(8.d\L
16B-\Jk)
8.B-\L
16F\Jk
=2||
*M3/4
16c\LK
8c\
16c\Jk
4c\
12c\L
12c\
12c\J
=3||
*M2/4
(8.B-\L
16F\Jk)
8.F\L
16D\Jk
=4||
*M3/4
16F\LL
16G\
16.F\
32G\JJk
16G\LK
8.F\J
12F\L
12F\
12D\J
=5||
*M2/4
8.F\L
16F\Jk
8.F\L
16D\Jk
=6
8.F\L
16F\Jk
8.F\L
16F\Jk
=7
8F\
8r
8B-\L
16c\L
16c\JJ
=8
8.c\L
16B-\Jk
8.B-\L
16F\Jk
=9
8.B-\L
16B-\Jk
8.B-\L
16G\Jk
=10
4F\
16D\LK
8.D\J
=11||
*M3/4
8F\L
16G\L
16G\JJ
16G\LK
8.F\J
8F\
8r
=12||
*M2/4
8.F\L
16F\Jk
8.F\L
16D\Jk
=13
8.F\L
16F\Jk
8.F\L
16F\Jk
=14||
2F\
==:|!
*-
